X:1
T:Inferno
T:Inferno
%%score [ 1 2 3 4 ]
L:1/8
Q:1/4=120
M:4/4
K:C
V:1 treble nm="Soprano" snm="S"
V:2 treble nm="Alto" snm="A"
V:3 treble-8 nm="Tenor" snm="T"
V:4 bass nm="Bass" snm="B"
V:1
 z8 | G4 G2 G2 | E2 F2 G4 | G4 z2 G2- | G2 A4 G2 | F4 D2 E2- | E2 C2 D2 E2 | F6 E2 | z2 B2 B2 B2 | %9
w: |Ver' in- fern'|e'l mio pe-|tto, Ver'|_ in- fer-|na- le spi-|* ri- to son'-|i- o,|E ver' in-|
 c2 c2 A4 | G4 z2 G2 | A2 c3 B B2- | BA A4 G2 | A3 G A2 B2- | BA G4 ^F2 | D2 E4 DC | D8 | D8 | %18
w: fer- nal fo-|co e'l|fo- co _ mi-|||||o.|Sen-|
 E2 C2 F4 | E4 z2 C2 | E3 F G4- | G2 F2 G2 G2 | z2 c2 B2 A2 | d3 c B2 A2- | AG G4 ^F2 | G4 z2 G2 | %26
w: za fin' ar-|do e|son di spe-|* me pri- vo,|E dell' a-|ma- * * t'o-|* * bie- *|tto, E-|
 E2 F2 G4 | C2 F4 E2 | D2 C2 D4 | D4 z2 D2 | E2 E2 F4 | E4 z2 C2 | E3 F G4- | G2 F2 G2 G2 | %34
w: ter- na- men-|te l'al- ma|vi- sta'ho per-|sa, Et|os- ti- na-|to in|u- na vo-|* glia vi- vo,|
 z2 c2 B2 A2 | d3 c B2 A2- | AG G4 ^F2 | G4 z2 G2 | E2 F2 G2- G2 | C2 F2 F2 E2 | D2 C2 D2- D2 | %41
w: Sol di tan-|t'e _ _ di-|* * ver- sa|_ La|sor- te mi- *|a dal- la per-|du- ta gen- *|
 D4 z2 G2 | D2 G4 ^F2 | G4 G2- G2 | A6 G2 | F2 D2 E2- E2 | F4 z2 D2 | A6 A2 | G2 G2 c2- c2 | %49
w: te, Ch'a|ra- gion quel-|la et _|io ard'|in- no- cen- *|te, Ma-|la- di-|ce so- ven- *|
 B2 G2 G2 G2 | A4 G2 G2 | c3 B A2 G2 | F2 D2 E2- E2 | D4 z2 F2 | F2 F2 G2- G2 | E4 F2- F2 | %56
w: te, Et o- dia|quel- la il|suo _ _ fat-|tor' Id- di- *|o, Et|io chi m'ar- *|de- laud' _|
 E2 D4 E2- | E2 C2 D2- D2 | D4 z2 E2 | D2 B,2 C2 D2 | E8 | D8 |] %62
w: a- mo'e de-|* * si- *|o laud'|a- mo'e de- *|si-|o.|
V:2
 z8 | C4 D2 B,2 | C2 C2 D4 | E4 z2 E2- | E2 F4 E2 | D4 B,2 C2- | CB,A,G, F,2 G,2 | A,2 F,2 G,4 | %8
w: |Ver'- in- fern'|e'l mio pe-|tto, Ver'|_ in- fer-|na- le spi-|* ri- to _ _ son'|i- * o,|
 z2 G2 G2 G2 | E2 E2 F4 | E4 z2 E2 | F2 E2 D4 | C2 E2 F2 E2 | C2 F3 E DC | D2 E4 A,2 | B,2 G,2 C4 | %16
w: E ver'- in-|fer- nal fo-|co e'l|fo- co mi-|o e'l fo- co|mi- * * * *|* o e'l|fo- co mi-|
 B,8 | B,8 | C2 C2 F,G,A,B, | C2 C2 E3 F | G6 FE | D2 C2 D4 | E8 | z2 F2 F2 F2 | D2 E2 D4 | %25
w: o.|Sen-|za fin' ar- * * *|do e son di|spe- * *|* me pri-|vo,|E dell' am-|at' o- biet-|
 B,2 E4 D2- | D2 C2 D2 E2 | A,2 A,4 C2 | B,2 G,2 A,4 | B,4 z2 B,2 | C2 C2 F,G,A,B, | C2 C2 E3 F | %32
w: to, E- ter-|* na- men- *|te- l'al- ma|vi- sta'ho per-|sa, Et|os- ti- na- * * *|to in u- na|
 G6 FE | D2 C2 D4 | E8 | z2 F2 F2 F2 | D2 E2 C2 D2 | B,2 E4 D2- | D2 C2 D2 E2 | A,2 A,2 A,2 C2 | %40
w: vo- * *|* glia vi-|vo,|Sol di tan-|t'e div- er- *|sa La sor-|* te mi- *|a dal- la per-|
 B,2 G,2 A,4 | B,3 C D4 | z2 B,2 C2 C2 | D4 E2 E2 | F3 E F2 E2- | ED D4 ^C2 | D4 z2 F2 | %47
w: du- ta gen-|* * te,|Ch'a ra- gion|quel- la et|io ard' in- no-|* * cen- *|te, Ma-|
 E2 F4 E2- | ED G4 ^F2 | G2 E2 D2 E2 | F4 E2 E2 | E2 F2 F2 E2- | ED D4 ^C2 | D8 | z2 D2 D2 D2 | %55
w: la- di- ce|_ sov- en- *|te, Et o- dia|quel- la il|suo fat- tor' Id-|* * di- *|o,|Et io chi|
 C4 C2 C2- | C2 A,2 B,2 C2- | CB,A,G, A,4 | B,4 z2 C2 | D2 E4 D2 | C8 | B,8 |] %62
w: m'ar- de laud'|_ a- mo'e de-|* * * * si-|o laud'|a- mo'e de-|si-|o.|
V:3
 G4 d2 d2 | e3 d/c/ B2 d2- | d2 c4 B2 | c8 | z2 c2 c2 c2 | A4 G2 G2- | GG A3 B c2- | c2 B2 c4 | %8
w: Ver' in- fern'|e'l _ _ _ mio|_ pe- *|tto,|Ver' in- fer-|na- le spi-|* ri- to son' i-|* * o,|
 z2 d2 d2 e2 | e2 c2 d4 | B8 | z4 z2 G2 | A2 c2 B4 | A2 c2 c2 B2 | G4 A4 | G8- | G8 | G8 | %18
w: E ver' in-|fer- nal fo-|co|e'l|fo- co mi-|o e'l fo- co|mi- *|o.|_|Sen-|
 G2 E2 A3 G | A2 G3 F ED | C2 c2 BAGA | BG c4 B2 | c4 z2 c2 | B2 A2 d3 c | B2 c2 A4 | G2 c2 c2 B2 | %26
w: za fin' ar- *|* do _ _ _|_ e son _ _ di|spe- me pri- *|vo, E|dell' a- ma- *|* t'o- bie-|tto, E- ter- na-|
 G2 A2 B2 c2- | cBAG F2 A2- | AG G4 ^F2 | G4 z2 G2- | G2 A4 F2 | A2 G2- GFED | C2 c2 c2 c2 | %33
w: men- te l'al- ma|_ _ _ _ vi- st'ho|_ _ per- *|sa, Et|os- ti- na-|to _ _ _ _ _|_ in u- na|
 B2 c4 B2 | c4 z2 c2 | B2 A2 d3 c | B2 c2 A4 | G2 c2 c2 B2 | G2 A2 B2 c2- | cBAG F2 A2- | %40
w: vo- glia vi-|vo, Sol|di tant' e _|_ di- ver-|sa La sor- te|mia da- lla per-|* * * * du- ta|
 AG G4 ^F2 | G2 G2- GABc | d2 e2- ed c2- | c2 B2 c4 | c4 c2 c2 | A2 G2 A2 A2 | z2 D2 A3 B | %47
w: _ _ gen- *|te, Ch'a _ _ _ _|ra- gion _ _ quel-|* * la|et io ard'|in- no- cen- te,|Ma- la- *|
 c2 d4 c2- | c2 B2 A4 | G2 c2 B2 c2 | FGAB c3 B | A3 G F2 G2 | _B4 A4 | D4 z2 A2 | A2 A2 B4 | %55
w: * di- ce|_ so- ven-|te, Et o- dia|quel- * * * la il|suo fat- tor' Id-|di- *|o, Et|io chi m'ar-|
 G4 A4 | G2 F2- FE A2- | AG G4 ^F2 | G8- | G8- | G8- | G8 |] %62
w: de laud'|a- mo'e _ _ de-|* * si- *|o.|_|||
V:4
 z8 | C,4 G,2 G,2 | A,2 A,2 G,4 | C,4 z2 C,2- | C,2 F,4 C,2 | D,4 G,,2 C,2- | C,C, F,4 E,2 | %7
w: |Ver' in- fern'-|e'l mio pe-|tto, Ver'-|_ in- fer-|na- le spi-|* ri- to son'|
 D,4 C,4 | z2 G,2 G,2 G,2 | A,2 A,2 D,4 | E,8 | z8 | z2 C,2 D,2 E,2 | F,3 E, F,2 G,2- | %14
w: i- o,|E ver' in-|fer- nal fo-|co||e'l fo- co|mi- * * *|
 G,F,E,D, C,2 D,2 | B,,2 C,4 B,,A,, | G,,8 | G,,8 | C,2 C,2 D,4 | C,8 | z2 C,2 E,3 F, | %21
w: ||o.|Sen-|za fin' ar-|do|e son di|
 G,2 A,2 G,4 | C,4 z4 | z8 | z4 D,4 | E,2 C,2 G,4 | C,2 F,4 E,2 | F,3 E, D,2 C,2 | D,2 E,2 D,4 | %29
w: spe- me pri-|vo,||E-|ter- na- men-|te l'al- ma|vi- * * *|* st'ho per-|
 G,,4 z2 G,,2 | C,2 C,2 D,4 | C,8 | z2 C,2 E,3 F, | G,2 A,2 G,4 | C,4 z4 | z4 z4 | z4 z2 D,2 | %37
w: sa, Et|os- ti- na-|to|in u- na|vo- glia vi-|vo,||La|
 E,2 C,2 G,4 | C,2 F,2 F,2 E,2 | F,3 E, D,2 C,2 | D,2 E,2 D,4 | G,,4 z2 G,2 | G,2 G,2 A,4 | %43
w: sor- te mi-|a da- lla per-|du- * * *|* ta gen-|te, Ch'a|ra- gion quel-|
 G,4 C,4 | F,6 C,2 | D,2 B,,2 A,,4 | D,8 | z8 | z8 | z8 | z8 | z8 | z8 | z4 D,4 | D,2 D,2 G,4 | %55
w: la et|io ard'|in- no- cen-|te,|||||||Et|io chi m'ar-|
 C,4 F,4 | C,2 D,4 C,2 | E,4 D,4 | G,,4 z2 C,2 | B,,2 E,2- E,D, B,,2 | C,8 | G,,8 |] %62
w: de laud'|a mo' de-|si- *|o laud'-|a- mo' _ e de-|si-|o.|

